X:20
T:14b. Katie Farrell's
C:Larry Mallette
R:double jig
M:6/8
Q:320
K:D
"Double Jig"
BGE EGB|AFD DFA|BGE EGB|e2f gfe|
dBG DGB|AFD DFA|1B2A Bcd|efg ~e3:|2~B3 Bcd|efg e2d||
e2f edB|GAB AFD|E2F GAB|=cBA B2d|e2f edB|
GAB AFD|1 E2F G2B|AFD E2d:|2 GFE AGF|BFD E3|]





